arkscan/icons/mandala_exchange.svg

<svg viewBox="0 0 20 19" fill="none" xmlns="http://www.w3.org/2000/svg">
<path d="M3.46525 17.0981C2.69628 15.7663 2.94678 14.3074 2.97321 14.2126C2.97976 14.1756 2.99786 14.1415 3.02492 14.1154C3.05197 14.0892 3.08661 14.0722 3.12387 14.0669C3.1896 14.0587 4.16185 13.9602 4.23301 13.9548C4.30417 13.9494 4.32781 14.0474 4.30926 14.0869C3.92889 14.8975 4.0736 15.8138 4.40146 16.3815C5.13003 17.6434 6.64891 18.0773 7.94272 17.3304C8.42363 17.0527 8.66157 16.8021 8.70285 16.7153C8.74412 16.6285 8.81467 16.5939 8.83501 16.6391C8.85534 16.6843 9.22554 17.4615 9.28069 17.6144C9.30122 17.6623 9.30504 17.7157 9.29154 17.7661C9.27805 17.8165 9.24802 17.8609 9.20628 17.8921C9.16053 17.9311 9.06969 18.0297 8.48331 18.3682C7.88448 18.7092 7.2074 18.889 6.51828 18.89C5.38317 18.89 4.20851 18.3855 3.46525 17.0981ZM10.2266 17.8355C10.1978 17.8113 10.1774 17.7786 10.1682 17.7421C10.1591 17.7056 10.1617 17.6671 10.1757 17.6322C10.2014 17.5712 10.6013 16.6797 10.6323 16.6156C10.6634 16.5514 10.7597 16.58 10.7845 16.6156C11.2952 17.3502 12.1595 17.683 12.8137 17.683C14.2679 17.683 15.401 16.5846 15.401 15.0907C15.401 14.5354 15.3031 14.2039 15.2488 14.1249C15.1945 14.0458 15.1998 13.9673 15.2488 13.9724C15.2978 13.9775 16.1546 14.0453 16.3142 14.074C16.3659 14.0803 16.414 14.1038 16.4508 14.1406C16.4875 14.1775 16.5109 14.2256 16.5171 14.2774C16.5279 14.3365 16.5679 14.4644 16.5679 15.1415C16.5679 16.8345 15.3758 18.8522 12.966 18.8522C11.4312 18.8522 10.2953 17.9059 10.2266 17.8355ZM8.54217 14.5631C9.41926 14.9883 10.2054 14.9199 11.001 14.5522C10.9729 15.3568 9.77254 17.6092 9.77254 17.6092C9.77254 17.6092 8.45265 14.9026 8.54217 14.5631ZM10.9876 16.2089C10.9704 16.1925 10.9568 16.1728 10.9475 16.1509C10.9383 16.1291 10.9335 16.1056 10.9335 16.0819C10.9335 16.0581 10.9383 16.0346 10.9475 16.0128C10.9568 15.991 10.9704 15.9712 10.9876 15.9548C11.0481 15.8856 11.4948 15.1161 11.4948 14.074C11.4948 13.032 10.7339 11.4816 10.7339 11.4816C10.7339 11.4816 12.0148 13.8826 14.3865 13.9215C14.5838 13.9248 14.5921 13.9398 14.6401 14.0232C14.6881 14.1066 14.8938 14.7134 14.8938 15.0398C14.8938 15.3662 14.843 15.4973 14.843 15.4973C14.843 15.4973 14.3149 14.7348 13.3718 14.7348C12.4823 14.7348 12.0021 15.5024 12.0021 16.3614C12.0052 16.602 12.0393 16.8412 12.1038 17.0731C11.4495 16.8995 11.0706 16.2997 10.9876 16.2089ZM7.23423 15.3916C6.78865 14.6198 5.88309 14.587 5.13933 15.0163C4.93246 15.1393 4.7424 15.2885 4.57388 15.4602C4.39648 14.8058 4.72638 14.1771 4.76308 14.0597C4.76877 14.0367 4.77905 14.015 4.79331 13.996C4.80757 13.9771 4.82552 13.9612 4.84607 13.9493C4.86662 13.9374 4.88936 13.9298 4.91292 13.927C4.93648 13.9241 4.96038 13.926 4.98317 13.9326C5.0734 13.9506 5.96371 13.9535 6.86611 13.4324C7.76852 12.9114 8.72994 11.476 8.72994 11.476C8.72994 11.476 7.29243 13.788 8.44686 15.8654C8.54293 16.0382 8.53409 16.053 8.48595 16.1364C8.43781 16.2197 8.01525 16.7016 7.73263 16.8648C7.45001 17.0279 7.31104 17.0495 7.31104 17.0495C7.31104 17.0495 7.70671 16.21 7.23423 15.3916ZM4.98399 11.1066C5.05434 12.0787 5.50668 12.7253 6.22289 13.2305C5.51207 13.6084 2.96121 13.6951 2.96121 13.6951C2.96121 13.6951 4.64505 11.1989 4.98399 11.1066V11.1066ZM13.3147 13.2099C14.1214 12.6629 14.4553 11.9479 14.5347 11.075C15.2173 11.5017 16.5679 13.6674 16.5679 13.6674C16.5679 13.6674 13.5641 13.4574 13.3147 13.2099ZM2.41869 13.3709C2.36207 13.3506 2.23128 13.3214 1.64489 12.9829C0.178717 12.1364 -0.971388 10.0931 0.235851 8.00206C1.00482 6.67028 2.39343 6.1575 2.48869 6.1332C2.52408 6.12042 2.5626 6.1191 2.59878 6.12945C2.63495 6.1398 2.66695 6.16128 2.69023 6.19084C2.73029 6.24366 3.30193 7.03632 3.34199 7.09538C3.38204 7.15445 3.3091 7.22373 3.26574 7.22754C2.37361 7.30333 1.65236 7.88687 1.3246 8.45461C0.596092 9.71649 0.979714 11.2489 2.27347 11.9959C2.75433 12.2735 3.09043 12.3543 3.18614 12.3466C3.28186 12.3389 3.34728 12.3829 3.3183 12.4228C3.28928 12.4628 2.8012 13.1724 2.69638 13.2963C2.67518 13.3246 2.64777 13.3477 2.61626 13.3638C2.58475 13.3799 2.54998 13.3885 2.51461 13.389C2.48184 13.3885 2.4494 13.3824 2.41869 13.3709ZM16.7752 13.3103C16.7351 13.2575 16.1631 12.4656 16.1231 12.4066C16.0831 12.3476 16.1558 12.2784 16.1993 12.2748C17.0908 12.1999 17.8113 11.6177 18.1384 11.0512C18.8653 9.79182 18.4807 8.26135 17.1869 7.51438C16.706 7.23675 16.3701 7.15582 16.2744 7.16324C16.1788 7.17066 16.1133 7.12685 16.1423 7.087C16.1713 7.04714 16.6584 6.33907 16.763 6.21519C16.7943 6.1736 16.8387 6.14371 16.889 6.13028C16.9393 6.11686 16.9926 6.12068 17.0405 6.14113C17.0971 6.16146 17.2278 6.19074 17.8143 6.52928C19.2804 7.37582 20.4317 9.41704 19.2269 11.5039C18.4593 12.8331 17.0719 13.344 16.9767 13.368C16.9557 13.3736 16.9341 13.3765 16.9123 13.3767C16.8858 13.3775 16.8595 13.3719 16.8356 13.3603C16.8118 13.3488 16.791 13.3316 16.7752 13.3103ZM8.79902 12.7715C9.04377 12.0929 9.75337 10.4597 9.75337 10.4597C9.75337 10.4597 10.3957 11.8808 10.8041 12.7878C10.4487 12.9344 10.069 13.0134 9.68455 13.0206C9.14543 13.0205 8.84436 12.8303 8.79902 12.7714V12.7715ZM6.66411 10.4333C7.37417 10.3062 9.1434 10.1039 9.1434 10.1039C9.1434 10.1039 8.23377 11.3707 7.65252 12.1778C6.61008 11.3436 6.61999 10.5402 6.66411 10.4332V10.4333ZM10.3665 10.1092C10.3665 10.1092 11.9184 10.2635 12.9081 10.3634C12.7069 11.6829 12.0062 12.0764 11.8914 12.0916C11.4262 11.5404 10.3665 10.1092 10.3665 10.1092ZM15.7283 11.7687C15.6987 11.6818 15.2556 10.9101 14.3532 10.389C13.4508 9.86802 11.7276 9.75187 11.7276 9.75187C11.7276 9.75187 14.4474 9.84301 15.667 7.80859C15.7687 7.63933 15.7857 7.63958 15.8819 7.63973C15.9781 7.63989 16.6065 7.76518 16.8891 7.9284C17.1717 8.09162 17.2602 8.20106 17.2602 8.20106C17.2602 8.20106 16.3358 8.27731 15.8642 9.09391C15.4195 9.86415 15.8443 10.664 16.5881 11.0934C16.7979 11.2111 17.0221 11.3011 17.2551 11.3613C16.7777 11.841 16.0687 11.8693 15.9487 11.8958C15.9319 11.8996 15.9148 11.9016 15.8976 11.9017C15.8586 11.9014 15.8209 11.8882 15.7903 11.8641C15.7596 11.8401 15.7378 11.8065 15.7283 11.7687ZM3.57917 11.8693C3.48289 11.8693 2.85432 11.7442 2.57164 11.5811C2.28897 11.4179 2.20088 11.3083 2.20088 11.3083C2.20088 11.3083 3.12601 11.2313 3.59823 10.4129C4.04387 9.64111 3.61953 8.84047 2.87577 8.41104C2.66589 8.29336 2.44165 8.20336 2.20866 8.14327C2.68647 7.66246 3.39602 7.63353 3.51614 7.60685C3.53894 7.60026 3.56283 7.59835 3.58639 7.60122C3.60994 7.60409 3.63268 7.61168 3.65323 7.62355C3.67378 7.63541 3.69172 7.65131 3.70599 7.67027C3.72025 7.68924 3.73054 7.71089 3.73624 7.73392C3.76582 7.82105 4.20846 8.59353 5.11086 9.11455C6.01327 9.63557 7.73716 9.75039 7.73716 9.75039C7.73716 9.75039 5.01616 9.66144 3.79418 11.7C3.69435 11.8665 3.67595 11.8692 3.5841 11.8692L3.57917 11.8693ZM11.8606 7.32905C12.9026 8.16314 12.8931 8.96658 12.8489 9.07363C12.1389 9.20071 10.3696 9.40306 10.3696 9.40306C10.3696 9.40306 11.2792 8.1362 11.8606 7.32905ZM6.60499 9.14342C6.80623 7.82384 7.50689 7.43041 7.62162 7.41516C8.08687 7.96643 9.14655 9.39757 9.14655 9.39757C9.14655 9.39757 7.59462 9.24325 6.60499 9.14342ZM8.70905 6.71908C9.95243 6.23349 10.6435 6.64365 10.714 6.73535C10.4693 7.41394 9.75967 9.0472 9.75967 9.0472C9.75967 9.0472 9.11737 7.62601 8.70905 6.71908ZM2.94515 5.8394C2.94515 5.8394 5.94891 6.04948 6.19834 6.29688C5.3916 6.84392 5.05785 7.55891 4.9784 8.43178C4.29573 8.00511 2.94515 5.8394 2.94515 5.8394ZM13.2902 6.27624C14.001 5.89836 16.5518 5.81159 16.5518 5.81159C16.5518 5.81159 14.8681 8.30786 14.5291 8.40022C14.4587 7.42802 14.0064 6.7814 13.2902 6.27624ZM5.08006 5.58524C4.88238 5.58199 4.87399 5.56694 4.8259 5.48358C4.77782 5.40022 4.57175 4.7933 4.57175 4.46696C4.57175 4.14057 4.62258 4.00948 4.62258 4.00948C4.62258 4.00948 5.15168 4.77195 6.09668 4.77195C6.9879 4.77195 7.46912 4.0044 7.46912 3.14535C7.46608 2.90475 7.43191 2.66555 7.36746 2.43372C8.02288 2.60736 8.40259 3.20711 8.48574 3.29785C8.50288 3.31428 8.51651 3.33401 8.52581 3.35585C8.53511 3.37769 8.5399 3.40118 8.53988 3.42492C8.53988 3.44866 8.53508 3.47215 8.52578 3.49399C8.51648 3.51582 8.50286 3.53556 8.48574 3.552C8.4251 3.62113 7.97743 4.39071 7.97743 5.43275C7.97743 6.47479 8.7399 8.02514 8.7399 8.02514C8.7399 8.02514 7.45641 5.62418 5.08006 5.58524ZM11.0132 3.63765C10.9174 3.46513 10.9261 3.45034 10.9744 3.36713C11.0226 3.28392 11.4453 2.80234 11.728 2.63913C12.0107 2.47591 12.1496 2.4543 12.1496 2.4543C12.1496 2.4543 11.7531 3.29302 12.2248 4.10967C12.6696 4.87991 13.5746 4.91199 14.3184 4.48256C14.5252 4.35968 14.7153 4.21056 14.884 4.03891C15.0607 4.69219 14.7307 5.32026 14.6936 5.43753C14.6879 5.46054 14.6776 5.48217 14.6633 5.50111C14.649 5.52005 14.6311 5.53593 14.6105 5.54779C14.59 5.55965 14.5673 5.56725 14.5437 5.57014C14.5202 5.57303 14.4963 5.57115 14.4735 5.56461C14.3833 5.54682 13.4935 5.54468 12.5911 6.0657C11.6887 6.58672 10.7265 8.02086 10.7265 8.02086C10.7265 8.02086 12.1653 5.711 11.0132 3.63765ZM15.1472 5.40993C15.5281 4.60039 15.3842 3.68543 15.057 3.11882C14.33 1.85933 12.8121 1.42726 11.5183 2.17448C11.0375 2.45202 10.7994 2.70256 10.7579 2.78903C10.7164 2.87559 10.6458 2.91046 10.6257 2.86527C10.6057 2.82019 10.2361 2.04445 10.1811 1.89186C10.1607 1.84394 10.1569 1.79054 10.1704 1.74023C10.184 1.68991 10.214 1.64561 10.2557 1.61442C10.3015 1.57548 10.3924 1.47718 10.9788 1.13844C12.4449 0.291949 14.7883 0.315484 15.9932 2.4024C16.7608 3.73164 16.5092 5.18856 16.4825 5.28315C16.4758 5.32017 16.4577 5.35415 16.4306 5.38029C16.4036 5.40642 16.369 5.42339 16.3318 5.42879C16.2661 5.43702 15.2942 5.5365 15.2231 5.54163H15.2177C15.151 5.54194 15.1294 5.44825 15.1472 5.40993H15.1472ZM4.21593 5.53441C4.16678 5.52933 3.30839 5.46142 3.14848 5.43275C3.09671 5.42651 3.04855 5.40309 3.01168 5.36622C2.97482 5.32936 2.95139 5.28119 2.94515 5.22943C2.93427 5.17031 2.89432 5.04237 2.89432 4.3653C2.89432 2.67232 4.08885 0.654629 6.50333 0.654629C8.04123 0.654629 9.17949 1.60085 9.24821 1.67125C9.27701 1.69548 9.29742 1.72818 9.30655 1.76468C9.31567 1.80119 9.31305 1.83965 9.29904 1.87457C9.27327 1.93557 8.87267 2.82705 8.84156 2.8912C8.81045 2.95535 8.71398 2.92678 8.68907 2.8912C8.1774 2.15659 7.31155 1.82374 6.65582 1.82374C5.19875 1.82374 4.06344 2.9222 4.06344 4.41613C4.06344 4.97141 4.16154 5.30288 4.21593 5.38192C4.26859 5.45852 4.26534 5.53472 4.22045 5.53467C4.21892 5.53466 4.21745 5.53458 4.21593 5.53441ZM9.74046 1.8976C9.74046 1.8976 11.0604 4.60395 10.9709 4.9437C10.0938 4.51855 9.30768 4.58697 8.51208 4.95463C8.54024 4.14998 9.74046 1.8976 9.74046 1.8976Z" fill="#60CD80"/>
</svg>

<svg viewBox="0 0 20 19" fill="none" xmlns="http://www.w3.org/2000/svg"><path d="M3.465 17.098c-.769-1.332-.518-2.79-.492-2.885a.178.178 0 0 1 .15-.146 124.33 124.33 0 0 1 1.11-.112c.071-.006.095.092.076.132-.38.81-.235 1.727.092 2.294.729 1.262 2.248 1.696 3.542.95.48-.278.719-.529.76-.616.041-.087.112-.121.132-.076.02.045.39.823.446.975a.232.232 0 0 1-.075.278c-.045.04-.136.138-.723.476a3.983 3.983 0 0 1-1.965.522c-1.135 0-2.31-.505-3.053-1.792Zm6.762.738a.18.18 0 0 1-.051-.204c.025-.06.425-.952.456-1.016.031-.065.128-.036.152 0 .511.734 1.375 1.067 2.03 1.067 1.454 0 2.587-1.098 2.587-2.592 0-.556-.098-.887-.152-.966-.055-.08-.05-.158 0-.153.049.005.906.073 1.065.102a.233.233 0 0 1 .203.203c.01.06.05.187.05.865 0 1.692-1.191 3.71-3.601 3.71-1.535 0-2.67-.946-2.74-1.017Zm-1.685-3.273c.877.425 1.663.357 2.459-.01-.028.804-1.228 3.056-1.228 3.056s-1.32-2.706-1.23-3.046Zm2.446 1.646a.174.174 0 0 1-.054-.127.178.178 0 0 1 .054-.127c.06-.07.507-.839.507-1.881s-.761-2.592-.761-2.592 1.28 2.4 3.652 2.44c.198.003.206.018.254.101.048.084.254.69.254 1.017 0 .326-.051.457-.051.457s-.528-.762-1.471-.762c-.89 0-1.37.767-1.37 1.626.003.241.037.48.102.712-.654-.174-1.033-.773-1.116-.864Zm-3.754-.817c-.445-.772-1.35-.805-2.095-.376a2.79 2.79 0 0 0-.565.444c-.178-.654.152-1.283.19-1.4a.177.177 0 0 1 .22-.127c.09.018.98.02 1.882-.5.903-.522 1.864-1.957 1.864-1.957s-1.438 2.312-.283 4.39c.096.172.087.187.039.27-.048.084-.47.566-.753.729-.283.163-.422.184-.422.184s.396-.839-.077-1.657Zm-2.25-4.285c.07.972.523 1.618 1.239 2.123-.71.378-3.262.465-3.262.465s1.684-2.496 2.023-2.588Zm8.33 2.103c.807-.547 1.141-1.262 1.22-2.135.683.427 2.034 2.592 2.034 2.592s-3.004-.21-3.253-.457Zm-10.895.16c-.057-.02-.188-.049-.774-.387-1.466-.847-2.616-2.89-1.41-4.98.77-1.333 2.158-1.846 2.254-1.87a.18.18 0 0 1 .201.058c.04.053.612.845.652.904.04.06-.033.129-.076.133-.892.075-1.614.659-1.941 1.227-.729 1.261-.345 2.794.948 3.54.481.279.817.36.913.352.096-.008.161.036.132.076-.029.04-.517.75-.622.873a.232.232 0 0 1-.277.075Zm14.356-.06c-.04-.053-.612-.844-.652-.903-.04-.06.033-.129.076-.132.892-.075 1.612-.657 1.94-1.224.726-1.26.342-2.79-.952-3.537-.481-.277-.817-.358-.913-.35-.095.007-.16-.037-.132-.077.03-.04.516-.748.621-.872a.233.233 0 0 1 .277-.074c.057.02.188.05.774.388 1.466.847 2.618 2.888 1.413 4.975-.768 1.33-2.155 1.84-2.25 1.864a.259.259 0 0 1-.065.009.164.164 0 0 1-.137-.067ZM8.8 12.771c.245-.678.954-2.311.954-2.311s.643 1.42 1.051 2.328a3.088 3.088 0 0 1-1.12.233c-.539 0-.84-.19-.885-.25Zm-2.135-2.338c.71-.127 2.48-.33 2.48-.33l-1.491 2.075c-1.043-.834-1.033-1.638-.989-1.745Zm3.703-.324 2.541.254c-.201 1.32-.902 1.713-1.017 1.729-.465-.552-1.524-1.983-1.524-1.983Zm5.361 1.66c-.03-.087-.472-.859-1.375-1.38-.902-.521-2.625-.637-2.625-.637s2.72.091 3.939-1.943c.102-.17.119-.17.215-.17s.725.126 1.007.29c.283.163.371.272.371.272s-.924.076-1.396.893c-.445.77-.02 1.57.724 2 .21.117.434.207.667.267-.477.48-1.186.508-1.306.535a.238.238 0 0 1-.051.006.175.175 0 0 1-.17-.133Zm-12.149.1c-.096 0-.725-.125-1.007-.288-.283-.163-.371-.273-.371-.273s.925-.077 1.397-.895c.446-.772.022-1.573-.722-2.002a2.787 2.787 0 0 0-.667-.268c.477-.48 1.187-.51 1.307-.536a.176.176 0 0 1 .22.127c.03.087.472.86 1.375 1.38.902.522 2.626.636 2.626.636s-2.72-.089-3.943 1.95c-.1.167-.118.17-.21.17H3.58Zm8.282-4.54c1.042.834 1.032 1.638.988 1.745-.71.127-2.48.33-2.48.33s.91-1.268 1.492-2.075ZM6.605 9.143c.201-1.32.902-1.713 1.017-1.728.465.551 1.525 1.983 1.525 1.983l-2.542-.255ZM8.709 6.72c1.243-.486 1.934-.075 2.005.016-.245.679-.954 2.312-.954 2.312S9.117 7.626 8.709 6.72Zm-5.764-.88s3.004.21 3.253.458c-.806.547-1.14 1.262-1.22 2.135-.682-.427-2.033-2.593-2.033-2.593Zm10.345.437c.711-.378 3.262-.464 3.262-.464S14.868 8.308 14.529 8.4c-.07-.972-.523-1.619-1.239-2.124Zm-8.21-.69c-.198-.004-.206-.02-.254-.102-.048-.084-.254-.69-.254-1.017 0-.326.05-.458.05-.458s.53.763 1.475.763c.89 0 1.372-.768 1.372-1.627a2.788 2.788 0 0 0-.102-.711c.656.173 1.036.773 1.119.864a.176.176 0 0 1 0 .254c-.06.07-.509.839-.509 1.88 0 1.043.763 2.593.763 2.593s-1.284-2.4-3.66-2.44Zm5.933-1.948c-.096-.173-.087-.188-.039-.27.049-.084.471-.566.754-.729.283-.163.422-.185.422-.185s-.397.839.075 1.656c.445.77 1.35.802 2.093.373.207-.123.397-.272.566-.444.177.653-.153 1.281-.19 1.399a.176.176 0 0 1-.22.127c-.09-.018-.98-.02-1.883.5-.902.522-1.864 1.956-1.864 1.956s1.438-2.31.286-4.383Zm4.134 1.772c.381-.81.237-1.725-.09-2.291-.727-1.26-2.245-1.692-3.539-.945-.48.278-.719.529-.76.615-.042.087-.112.121-.132.076-.02-.045-.39-.82-.445-.973a.233.233 0 0 1 .075-.278c.046-.039.136-.137.723-.476 1.466-.846 3.81-.823 5.014 1.264.768 1.33.516 2.787.49 2.881a.18.18 0 0 1-.151.146c-.066.008-1.038.107-1.109.113h-.005c-.067 0-.089-.094-.07-.132Zm-10.931.124c-.05-.005-.908-.073-1.068-.101a.233.233 0 0 1-.203-.204c-.01-.059-.05-.187-.05-.864 0-1.693 1.194-3.71 3.608-3.71 1.538 0 2.676.946 2.745 1.016a.179.179 0 0 1 .051.204c-.026.06-.426.952-.457 1.016-.032.064-.128.036-.153 0-.512-.734-1.377-1.067-2.033-1.067-1.457 0-2.593 1.098-2.593 2.592 0 .555.099.887.153.966.053.077.05.153.004.153h-.004ZM9.74 1.898s1.32 2.706 1.23 3.046c-.876-.425-1.662-.357-2.458.01C8.54 4.15 9.74 1.899 9.74 1.899Z" fill="#60CD80"/></svg>
